utils/icon设计资源/icons/person.svg

<?xml version="1.0" encoding="UTF-8" standalone="no"?>
<svg
   xmlns:dc="http://purl.org/dc/elements/1.1/"
   xmlns:cc="http://creativecommons.org/ns#"
   xmlns:rdf="http://www.w3.org/1999/02/22-rdf-syntax-ns#"
   xmlns:svg="http://www.w3.org/2000/svg"
   xmlns="http://www.w3.org/2000/svg"
   xmlns:sodipodi="http://sodipodi.sourceforge.net/DTD/sodipodi-0.dtd"
   xmlns:inkscape="http://www.inkscape.org/namespaces/inkscape"
   inkscape:version="1.0 (4035a4fb49, 2020-05-01)"
   sodipodi:docname="person.svg"
   id="svg6591"
   version="1.1"
   fill="currentColor"
   class="bi bi-person"
   viewBox="0 0 16 16"
   height="1em"
   width="1em">
  <metadata
     id="metadata6597">
    <rdf:RDF>
      <cc:Work
         rdf:about="">
        <dc:format>image/svg+xml</dc:format>
        <dc:type
           rdf:resource="http://purl.org/dc/dcmitype/StillImage" />
      </cc:Work>
    </rdf:RDF>
  </metadata>
  <defs
     id="defs6595" />
  <sodipodi:namedview
     inkscape:current-layer="svg6591"
     inkscape:window-maximized="1"
     inkscape:window-y="-9"
     inkscape:window-x="-9"
     inkscape:cy="8"
     inkscape:cx="8"
     inkscape:zoom="51.875"
     showgrid="false"
     id="namedview6593"
     inkscape:window-height="1001"
     inkscape:window-width="1920"
     inkscape:pageshadow="2"
     inkscape:pageopacity="0"
     guidetolerance="10"
     gridtolerance="10"
     objecttolerance="10"
     borderopacity="1"
     bordercolor="#666666"
     pagecolor="#ffffff" />
  <path
     d="M 7.9492188 2 A 3 3 0 0 0 5 5 A 3 3 0 0 0 11 5 A 3 3 0 0 0 7.9492188 2 z M 8 3 A 2 2 0 0 1 8 7 A 2 2 0 0 1 8 3 z M 8 9 C 3 9 2 12 2 13 C 2 14 3 14 3 14 L 13 14 C 13 14 14 14 14 13 C 14 12 13 9 8 9 z M 8 10 C 10.289 10 11.515969 10.680031 12.167969 11.332031 C 12.845969 12.010031 12.999 12.750094 13 12.996094 L 12.992188 12.998047 A 0.274 0.274 0 0 1 12.978516 13 L 3.0214844 13 A 1.05 1.05 0 0 1 3 12.996094 C 3.002 12.750094 3.1540313 12.010031 3.8320312 11.332031 C 4.4840313 10.680031 5.71 10 8 10 z M 3.0058594 13.054688 L 3.0058594 13.056641 L 3.0058594 13.054688 z M 12.996094 13.054688 L 12.996094 13.056641 L 12.996094 13.054688 z "
     style="fill:#000000;fill-opacity:1;fill-rule:evenodd"
     id="path6589" />
</svg>

<svg width="1em" height="1em" viewBox="0 0 16 16" class="bi bi-person" fill="currentColor" xmlns="http://www.w3.org/2000/svg">
  <path fill-rule="evenodd" d="M13 14s1 0 1-1-1-4-6-4-6 3-6 4 1 1 1 1h10zm-9.995-.944v-.002.002zM3.022 13h9.956a.274.274 0 0 0 .014-.002l.008-.002c-.001-.246-.154-.986-.832-1.664C11.516 10.68 10.289 10 8 10c-2.29 0-3.516.68-4.168 1.332-.678.678-.83 1.418-.832 1.664a1.05 1.05 0 0 0 .022.004zm9.974.056v-.002.002zM8 7a2 2 0 1 0 0-4 2 2 0 0 0 0 4zm3-2a3 3 0 1 1-6 0 3 3 0 0 1 6 0z"/>
</svg>
